X:1
T:Title
%%score ( 1 2 ) { 3 | 4 }
L:1/8
Q:1/4=85
M:2/4
K:F
V:1 treble nm="Grand Piano, Staff 1"
V:2 treble 
V:3 treble nm="Choir Pad, Shoel, LM"
V:4 bass 
V:1
 F2 [FA][FA] | A[Fc] [Fc]2- | [Fc][Af] [GB]c/d/ | [Fc][EB] [FA]2- | [FA][Ac] [Ac][Ff] | %5
w: By~A~Compilation~of~Genuine~Church~Music,~1832 * *|||||
 AB [Gc][Af] | [Ge][Fd] [Cc]2 | [D=B]2 [Ec]2 | [Ec]2 [FA][FA] | A[Fc] [Bd]2- | [Bd][Ac] [Ac]A | %11
w: ||||||
 FA [EG]2- | [EG][EG] [FA][FA] | [Ac][FA] [GB]c/[Bd]/ | [Gc]B [FA]2 | [EG]2 F2- | F4 |] %17
w: ||||||
V:2
 x4 | x4 | z2 z F | x4 | x4 | F2 z2 | x4 | x4 | x4 | x4 | x4 | x4 | x4 | x4 | x4 | x4 | x4 |] %17
V:3
 A,2 CA, | CF F2- | FC DF | E2 F2- | FC A,C | CD EF | GF E2 | D2 C2 | A,2 CA, | CF F2- | FF FC | %11
 CF C2- | CC FC | A,F,[K:treble] DF | FD C2 | C2 C2- | C4 |] %17
V:4
 F,2 F,2 | F,2 A,2- | A,F, B,2 | C,2 F,2- | F,C, F,2 | F,2 C,D, | E,F, G,2 | [G,,G,]2 C,2 | %8
 F,2 F,2 | F,2 B,2- | B,F, F,2 | F,2 C,2- | C,C, F,2 | .F,2 B,,2 | A,,B,, C,2 | C,2 F,2- | F,4 |] %17

